d1 $ sound "drum drum drum drum" # vowel "e"


d1 $ sound "drum drum drum drum" # vowel "a o e e"

d1 $ sound "drum drum drum drum" # vowel "<a o e e>"

d1 $ sound "drum drum drum drum" # vowel "a o p p"

hush
